X:1
T:The Doryman
M:3/4
L:1/4
K:C
 G| G2 G| G F E| F F2| F F F| E E2| D2 D| E G2-| G2 G| G G G| G F E|\
 F2 F| F F F| E E E| D2 G| E C2-| C2 A| A2 A| A G F| G2 G| E2 E| F F F|\
 F- E D| E2 G| G3-| G2 G| A2 A| A G F| G G2| E2 G/2G/2| G G G| F E D|\
 G3-| G,3| C3-| C2||
